X:58
T:Port Nan Con
T:Bob o' Dooly, The
R:Reel
B:The Athole Collection
M:C
L:1/8
K:A
A>ee>f e>d c2|A>ee>c d=GdB|A>ee>f edcA|BEEF =GABG:|
A>a a2 eaca|=G>=g ~=g2 dgBG|aAA2 eaca|BE~E>F =GABG|Aaa2 eaca|
B=GG2 dGB=G|aAAe f<eae|=gbeg dgB=G||

